(.../Program Files/EAGLE-6.6.0/ulp/pcb-gcode.ulp)
(Copyright 2005 - 2012 by John Johnson)
(See readme.txt for licensing terms.)
(This file generated from the board:)
(.../Power Distribution/CNC-CTRL-BRD-Simple.brd)
(Current profile is .../EAGLE-6.6.0/ulp/profiles/generic.pp  )
(This file generated 7/10/2014 9:23:17 PM)
(Settings from pcb-machine.h)
(  Tool Size)
(0.0070 )
(Z Axis Settings)
(  High     Up        Down     Drill)
(0.5000 	0.1000 	-0.0070 	-0.0320 )
(spindle on time = 3.0000)
(milling depth = -0.0100)
(text depth = -0.0050)
(tool change at 0.5000 0.6000 1.0000 )
(feed rate xy = F20.00 )
(feed rate z  = F10.00 )
(Settings from pcb-defaults.h)
(isolate min = 0.0010)
(isolate max = 0.0200)
(isolate step = 0.0050)
(Generated top outlines, top drill, )
(Unit of measure: inch)
( Tool|       Size       |  Min Sub |  Max Sub |   Count )
( T01  0.800mm 0.0315in 0.0000in 0.0000in )
( T02  1.016mm 0.0400in 0.0000in 0.0000in )
(Inch Mode)
G20
(Absolute Coordinates)
G90
M05
G00 Z1.0000 
G00 X0.5000 Y0.6000 
M06 T01  ; 0.0315 
G01 Z0.0000 F10.00 
M06 T01  ; 0.0315 
G00 Z0.1000 
M03
G04 P3.000000
G00 Z0.100000
G00 X0.6966 Y0.5361 
G01 Z-0.0320 F10.00 
G01 Z0.100000
(R0.1000  P1.000000)
(G00 Z0.100000)
G00 X0.7007 Y0.3007 
G01 Z-0.032000
G01 Z0.100000
M05
G00 Z1.0000 
M06 T02  ; 0.0400 
G01 Z0.0000 F10.00 
M06 T02  ; 0.0400 
G00 Z0.1000 
M03
G04 P3.000000
G00 Z0.100000
G00 X1.3344 Y0.4722 
G01 Z-0.0320 F10.00 
G01 Z0.100000
(R0.1000  P1.000000)
(G00 Z0.100000)
G00 X1.3395 Y1.0823 
G01 Z-0.032000
G01 Z0.100000
(G00 Z0.100000)
G00 X1.3400 Y1.6550 
G01 Z-0.032000
G01 Z0.100000
(G00 Z0.100000)
G00 X1.3440 Y1.2830 
G01 Z-0.032000
G01 Z0.100000
(G00 Z0.100000)
G00 X1.3464 Y1.4849 
G01 Z-0.032000
G01 Z0.100000
(G00 Z0.100000)
G00 X1.3506 Y0.8966 
G01 Z-0.032000
G01 Z0.100000
(G00 Z0.100000)
G00 X1.3510 Y0.6733 
G01 Z-0.032000
G01 Z0.100000
(G00 Z0.100000)
G00 X1.4344 Y0.4622 
G01 Z-0.032000
G01 Z0.100000
(G00 Z0.100000)
G00 X1.4395 Y1.0923 
G01 Z-0.032000
G01 Z0.100000
(G00 Z0.100000)
G00 X1.4400 Y1.6450 
G01 Z-0.032000
G01 Z0.100000
(G00 Z0.100000)
G00 X1.4440 Y1.2930 
G01 Z-0.032000
G01 Z0.100000
(G00 Z0.100000)
G00 X1.4464 Y1.4949 
G01 Z-0.032000
G01 Z0.100000
(G00 Z0.100000)
G00 X1.4506 Y0.8866 
G01 Z-0.032000
G01 Z0.100000
(G00 Z0.100000)
G00 X1.4510 Y0.6633 
G01 Z-0.032000
G01 Z0.100000
(G00 Z0.100000)
G00 X1.5344 Y0.4722 
G01 Z-0.032000
G01 Z0.100000
(G00 Z0.100000)
G00 X1.5395 Y1.0823 
G01 Z-0.032000
G01 Z0.100000
(G00 Z0.100000)
G00 X1.5400 Y1.6550 
G01 Z-0.032000
G01 Z0.100000
(G00 Z0.100000)
G00 X1.5440 Y1.2830 
G01 Z-0.032000
G01 Z0.100000
(G00 Z0.100000)
G00 X1.5464 Y1.4849 
G01 Z-0.032000
G01 Z0.100000
(G00 Z0.100000)
G00 X1.5506 Y0.8966 
G01 Z-0.032000
G01 Z0.100000
(G00 Z0.100000)
G00 X1.5510 Y0.6733 
G01 Z-0.032000
G01 Z0.100000
(G00 Z0.100000)
G00 X1.9918 Y1.2541 
G01 Z-0.032000
G01 Z0.100000
(G00 Z0.100000)
G00 X1.9918 Y1.3541 
G01 Z-0.032000
G01 Z0.100000
(G00 Z0.100000)
G00 X1.9918 Y1.4541 
G01 Z-0.032000
G01 Z0.100000
(G00 Z0.100000)
G00 X1.9918 Y1.5541 
G01 Z-0.032000
G01 Z0.100000
(G00 Z0.100000)
G00 X1.9918 Y1.6541 
G01 Z-0.032000
G01 Z0.100000
(G00 Z0.100000)
G00 X1.9918 Y1.7541 
G01 Z-0.032000
G01 Z0.100000
(G00 Z0.100000)
G00 X1.9918 Y0.2041 
G01 Z-0.032000
G01 Z0.100000
(G00 Z0.100000)
G00 X1.9918 Y0.3041 
G01 Z-0.032000
G01 Z0.100000
(G00 Z0.100000)
G00 X1.9918 Y0.4041 
G01 Z-0.032000
G01 Z0.100000
(G00 Z0.100000)
G00 X1.9918 Y0.5041 
G01 Z-0.032000
G01 Z0.100000
(G00 Z0.100000)
G00 X1.9918 Y0.6041 
G01 Z-0.032000
G01 Z0.100000
(G00 Z0.100000)
G00 X1.9918 Y0.7041 
G01 Z-0.032000
G01 Z0.100000
(G00 Z0.100000)
G00 X1.9918 Y0.8041 
G01 Z-0.032000
G01 Z0.100000
(G00 Z0.100000)
G00 X1.9918 Y0.9041 
G01 Z-0.032000
G01 Z0.100000
(G00 Z0.100000)
G00 X1.9918 Y1.0541 
G01 Z-0.032000
G01 Z0.100000
(G00 Z0.100000)
G00 X1.9918 Y1.1541 
G01 Z-0.032000
G01 Z0.100000
(G00 Z0.100000)
G00 X0.0918 Y1.3041 
G01 Z-0.032000
G01 Z0.100000
(G00 Z0.100000)
G00 X0.0918 Y1.4041 
G01 Z-0.032000
G01 Z0.100000
(G00 Z0.100000)
G00 X0.0918 Y0.2041 
G01 Z-0.032000
G01 Z0.100000
(G00 Z0.100000)
G00 X0.0918 Y0.3041 
G01 Z-0.032000
G01 Z0.100000
(G00 Z0.100000)
G00 X0.0918 Y0.4041 
G01 Z-0.032000
G01 Z0.100000
(G00 Z0.100000)
G00 X0.0918 Y0.5041 
G01 Z-0.032000
G01 Z0.100000
(G00 Z0.100000)
G00 X0.0918 Y0.6041 
G01 Z-0.032000
G01 Z0.100000
(G00 Z0.100000)
G00 X0.0918 Y0.7041 
G01 Z-0.032000
G01 Z0.100000
(G00 Z0.100000)
G00 X0.0918 Y0.9041 
G01 Z-0.032000
G01 Z0.100000
(G00 Z0.100000)
G00 X0.0918 Y1.0041 
G01 Z-0.032000
G01 Z0.100000
(G00 Z0.100000)
G00 X0.0918 Y1.1041 
G01 Z-0.032000
G01 Z0.100000
(G00 Z0.100000)
G00 X0.0918 Y1.2041 
G01 Z-0.032000
G01 Z0.100000
T01 
G00 Z0.5000 
M05
M02
