(.../Program Files/EAGLE-6.6.0/ulp/pcb-gcode.ulp)
(Copyright 2005 - 2012 by John Johnson)
(See readme.txt for licensing terms.)
(This file generated from the board:)
(.../Power Distribution/CNC-CTRL-BRD-Simple.brd)
(Current profile is .../EAGLE-6.6.0/ulp/profiles/generic.pp  )
(This file generated 7/10/2014 9:22:21 PM)
(Settings from pcb-machine.h)
(  Tool Size)
(0.0070 )
(Z Axis Settings)
(  High     Up        Down     Drill)
(0.5000 	0.1000 	-0.0070 	-0.0320 )
(spindle on time = 3.0000)
(milling depth = -0.0100)
(text depth = -0.0050)
(tool change at 0.5000 0.6000 1.0000 )
(feed rate xy = F20.00 )
(feed rate z  = F10.00 )
(Settings from pcb-defaults.h)
(isolate min = 0.0010)
(isolate max = 0.0200)
(isolate step = 0.0050)
(Generated top outlines, top drill, )
(Unit of measure: inch)
(Inch Mode)
G20
(Absolute Coordinates)
G90
G00 X0.0000 Y0.0000 
M03
G04 P3.000000
G00 Z0.1000 
G00 X0.1333 Y1.4008 
G01 Z-0.0070 F10.00 
G01 X0.1333 Y1.4074 F20.00 
G01 X0.1323 Y1.4138 
G01 X0.1303 Y1.4200 
G01 X0.1273 Y1.4258 
G01 X0.1235 Y1.4311 
G01 X0.1188 Y1.4357 
G01 X0.1136 Y1.4396 
G01 X0.1077 Y1.4425 
G01 X0.1015 Y1.4446 
G01 X0.0951 Y1.4456 
G01 X0.0885 Y1.4456 
G01 X0.0821 Y1.4446 
G01 X0.0759 Y1.4425 
G01 X0.0701 Y1.4396 
G01 X0.0648 Y1.4357 
G01 X0.0602 Y1.4311 
G01 X0.0563 Y1.4258 
G01 X0.0534 Y1.4200 
G01 X0.0513 Y1.4138 
G01 X0.0503 Y1.4074 
G01 X0.0503 Y1.4008 
G01 X0.0513 Y1.3944 
G01 X0.0534 Y1.3882 
G01 X0.0563 Y1.3823 
G01 X0.0602 Y1.3770 
G01 X0.0648 Y1.3724 
G01 X0.0701 Y1.3686 
G01 X0.0759 Y1.3656 
G01 X0.0821 Y1.3636 
G01 X0.0885 Y1.3626 
G01 X0.0951 Y1.3626 
G01 X0.1015 Y1.3636 
G01 X0.1077 Y1.3656 
G01 X0.1136 Y1.3686 
G01 X0.1188 Y1.3724 
G01 X0.1235 Y1.3770 
G01 X0.1273 Y1.3823 
G01 X0.1303 Y1.3882 
G01 X0.1323 Y1.3944 
G01 X0.1333 Y1.4008 
G00 Z0.1000 
G00 X0.1333 Y1.3008 
G01 Z-0.0070 F10.00 
G01 X0.1333 Y1.3074 F20.00 
G01 X0.1323 Y1.3138 
G01 X0.1303 Y1.3200 
G01 X0.1273 Y1.3258 
G01 X0.1235 Y1.3311 
G01 X0.1188 Y1.3357 
G01 X0.1136 Y1.3396 
G01 X0.1077 Y1.3425 
G01 X0.1015 Y1.3446 
G01 X0.0951 Y1.3456 
G01 X0.0885 Y1.3456 
G01 X0.0821 Y1.3446 
G01 X0.0759 Y1.3425 
G01 X0.0701 Y1.3396 
G01 X0.0648 Y1.3357 
G01 X0.0602 Y1.3311 
G01 X0.0563 Y1.3258 
G01 X0.0534 Y1.3200 
G01 X0.0513 Y1.3138 
G01 X0.0503 Y1.3074 
G01 X0.0503 Y1.3008 
G01 X0.0513 Y1.2944 
G01 X0.0534 Y1.2882 
G01 X0.0563 Y1.2823 
G01 X0.0602 Y1.2770 
G01 X0.0648 Y1.2724 
G01 X0.0701 Y1.2686 
G01 X0.0759 Y1.2656 
G01 X0.0821 Y1.2636 
G01 X0.0885 Y1.2626 
G01 X0.0951 Y1.2626 
G01 X0.1015 Y1.2636 
G01 X0.1077 Y1.2656 
G01 X0.1136 Y1.2686 
G01 X0.1188 Y1.2724 
G01 X0.1235 Y1.2770 
G01 X0.1273 Y1.2823 
G01 X0.1303 Y1.2882 
G01 X0.1323 Y1.2944 
G01 X0.1333 Y1.3008 
G00 Z0.1000 
G00 X0.1333 Y1.2008 
G01 Z-0.0070 F10.00 
G01 X0.1333 Y1.2074 F20.00 
G01 X0.1323 Y1.2138 
G01 X0.1303 Y1.2200 
G01 X0.1273 Y1.2258 
G01 X0.1235 Y1.2311 
G01 X0.1188 Y1.2357 
G01 X0.1136 Y1.2396 
G01 X0.1077 Y1.2425 
G01 X0.1015 Y1.2446 
G01 X0.0951 Y1.2456 
G01 X0.0885 Y1.2456 
G01 X0.0821 Y1.2446 
G01 X0.0759 Y1.2425 
G01 X0.0701 Y1.2396 
G01 X0.0648 Y1.2357 
G01 X0.0602 Y1.2311 
G01 X0.0563 Y1.2258 
G01 X0.0534 Y1.2200 
G01 X0.0513 Y1.2138 
G01 X0.0503 Y1.2074 
G01 X0.0503 Y1.2008 
G01 X0.0513 Y1.1944 
G01 X0.0534 Y1.1882 
G01 X0.0563 Y1.1823 
G01 X0.0602 Y1.1770 
G01 X0.0648 Y1.1724 
G01 X0.0701 Y1.1686 
G01 X0.0759 Y1.1656 
G01 X0.0821 Y1.1636 
G01 X0.0885 Y1.1626 
G01 X0.0951 Y1.1626 
G01 X0.1015 Y1.1636 
G01 X0.1077 Y1.1656 
G01 X0.1136 Y1.1686 
G01 X0.1188 Y1.1724 
G01 X0.1235 Y1.1770 
G01 X0.1273 Y1.1823 
G01 X0.1303 Y1.1882 
G01 X0.1323 Y1.1944 
G01 X0.1333 Y1.2008 
G00 Z0.1000 
G00 X0.1333 Y1.1008 
G01 Z-0.0070 F10.00 
G01 X0.1333 Y1.1074 F20.00 
G01 X0.1323 Y1.1138 
G01 X0.1303 Y1.1200 
G01 X0.1273 Y1.1258 
G01 X0.1235 Y1.1311 
G01 X0.1188 Y1.1357 
G01 X0.1136 Y1.1396 
G01 X0.1077 Y1.1425 
G01 X0.1015 Y1.1446 
G01 X0.0951 Y1.1456 
G01 X0.0885 Y1.1456 
G01 X0.0821 Y1.1446 
G01 X0.0759 Y1.1425 
G01 X0.0701 Y1.1396 
G01 X0.0648 Y1.1357 
G01 X0.0602 Y1.1311 
G01 X0.0563 Y1.1258 
G01 X0.0534 Y1.1200 
G01 X0.0513 Y1.1138 
G01 X0.0503 Y1.1074 
G01 X0.0503 Y1.1008 
G01 X0.0513 Y1.0944 
G01 X0.0534 Y1.0882 
G01 X0.0563 Y1.0823 
G01 X0.0602 Y1.0770 
G01 X0.0648 Y1.0724 
G01 X0.0701 Y1.0686 
G01 X0.0759 Y1.0656 
G01 X0.0821 Y1.0636 
G01 X0.0885 Y1.0626 
G01 X0.0951 Y1.0626 
G01 X0.1015 Y1.0636 
G01 X0.1077 Y1.0656 
G01 X0.1136 Y1.0686 
G01 X0.1188 Y1.0724 
G01 X0.1235 Y1.0770 
G01 X0.1273 Y1.0823 
G01 X0.1303 Y1.0882 
G01 X0.1323 Y1.0944 
G01 X0.1333 Y1.1008 
G00 Z0.1000 
G00 X0.1333 Y1.0008 
G01 Z-0.0070 F10.00 
G01 X0.1333 Y1.0074 F20.00 
G01 X0.1323 Y1.0138 
G01 X0.1303 Y1.0200 
G01 X0.1273 Y1.0258 
G01 X0.1235 Y1.0311 
G01 X0.1188 Y1.0357 
G01 X0.1136 Y1.0396 
G01 X0.1077 Y1.0425 
G01 X0.1015 Y1.0446 
G01 X0.0951 Y1.0456 
G01 X0.0885 Y1.0456 
G01 X0.0821 Y1.0446 
G01 X0.0759 Y1.0425 
G01 X0.0701 Y1.0396 
G01 X0.0648 Y1.0357 
G01 X0.0602 Y1.0311 
G01 X0.0563 Y1.0258 
G01 X0.0534 Y1.0200 
G01 X0.0513 Y1.0138 
G01 X0.0503 Y1.0074 
G01 X0.0503 Y1.0008 
G01 X0.0513 Y0.9944 
G01 X0.0534 Y0.9882 
G01 X0.0563 Y0.9823 
G01 X0.0602 Y0.9770 
G01 X0.0648 Y0.9724 
G01 X0.0701 Y0.9686 
G01 X0.0759 Y0.9656 
G01 X0.0821 Y0.9636 
G01 X0.0885 Y0.9626 
G01 X0.0951 Y0.9626 
G01 X0.1015 Y0.9636 
G01 X0.1077 Y0.9656 
G01 X0.1136 Y0.9686 
G01 X0.1188 Y0.9724 
G01 X0.1235 Y0.9770 
G01 X0.1273 Y0.9823 
G01 X0.1303 Y0.9882 
G01 X0.1323 Y0.9944 
G01 X0.1333 Y1.0008 
G00 Z0.1000 
G00 X0.1333 Y0.9008 
G01 Z-0.0070 F10.00 
G01 X0.1333 Y0.9074 F20.00 
G01 X0.1323 Y0.9138 
G01 X0.1303 Y0.9200 
G01 X0.1273 Y0.9258 
G01 X0.1235 Y0.9311 
G01 X0.1188 Y0.9357 
G01 X0.1136 Y0.9396 
G01 X0.1077 Y0.9425 
G01 X0.1015 Y0.9446 
G01 X0.0951 Y0.9456 
G01 X0.0885 Y0.9456 
G01 X0.0821 Y0.9446 
G01 X0.0759 Y0.9425 
G01 X0.0701 Y0.9396 
G01 X0.0648 Y0.9357 
G01 X0.0602 Y0.9311 
G01 X0.0563 Y0.9258 
G01 X0.0534 Y0.9200 
G01 X0.0513 Y0.9138 
G01 X0.0503 Y0.9074 
G01 X0.0503 Y0.9008 
G01 X0.0513 Y0.8944 
G01 X0.0534 Y0.8882 
G01 X0.0563 Y0.8823 
G01 X0.0602 Y0.8770 
G01 X0.0648 Y0.8724 
G01 X0.0701 Y0.8686 
G01 X0.0759 Y0.8656 
G01 X0.0821 Y0.8636 
G01 X0.0885 Y0.8626 
G01 X0.0951 Y0.8626 
G01 X0.1015 Y0.8636 
G01 X0.1077 Y0.8656 
G01 X0.1136 Y0.8686 
G01 X0.1188 Y0.8724 
G01 X0.1235 Y0.8770 
G01 X0.1273 Y0.8823 
G01 X0.1303 Y0.8882 
G01 X0.1323 Y0.8944 
G01 X0.1333 Y0.9008 
G00 Z0.1000 
G00 X0.1333 Y0.7008 
G01 Z-0.0070 F10.00 
G01 X0.1333 Y0.7074 F20.00 
G01 X0.1323 Y0.7138 
G01 X0.1303 Y0.7200 
G01 X0.1273 Y0.7258 
G01 X0.1235 Y0.7311 
G01 X0.1188 Y0.7357 
G01 X0.1136 Y0.7396 
G01 X0.1077 Y0.7425 
G01 X0.1015 Y0.7446 
G01 X0.0951 Y0.7456 
G01 X0.0885 Y0.7456 
G01 X0.0821 Y0.7446 
G01 X0.0759 Y0.7425 
G01 X0.0701 Y0.7396 
G01 X0.0648 Y0.7357 
G01 X0.0602 Y0.7311 
G01 X0.0563 Y0.7258 
G01 X0.0534 Y0.7200 
G01 X0.0513 Y0.7138 
G01 X0.0503 Y0.7074 
G01 X0.0503 Y0.7008 
G01 X0.0513 Y0.6944 
G01 X0.0534 Y0.6882 
G01 X0.0563 Y0.6823 
G01 X0.0602 Y0.6770 
G01 X0.0648 Y0.6724 
G01 X0.0701 Y0.6686 
G01 X0.0759 Y0.6656 
G01 X0.0821 Y0.6636 
G01 X0.0885 Y0.6626 
G01 X0.0951 Y0.6626 
G01 X0.1015 Y0.6636 
G01 X0.1077 Y0.6656 
G01 X0.1136 Y0.6686 
G01 X0.1188 Y0.6724 
G01 X0.1235 Y0.6770 
G01 X0.1273 Y0.6823 
G01 X0.1303 Y0.6882 
G01 X0.1323 Y0.6944 
G01 X0.1333 Y0.7008 
G00 Z0.1000 
G00 X0.1333 Y0.6008 
G01 Z-0.0070 F10.00 
G01 X0.1333 Y0.6074 F20.00 
G01 X0.1323 Y0.6138 
G01 X0.1303 Y0.6200 
G01 X0.1273 Y0.6258 
G01 X0.1235 Y0.6311 
G01 X0.1188 Y0.6357 
G01 X0.1136 Y0.6396 
G01 X0.1077 Y0.6425 
G01 X0.1015 Y0.6446 
G01 X0.0951 Y0.6456 
G01 X0.0885 Y0.6456 
G01 X0.0821 Y0.6446 
G01 X0.0759 Y0.6425 
G01 X0.0701 Y0.6396 
G01 X0.0648 Y0.6357 
G01 X0.0602 Y0.6311 
G01 X0.0563 Y0.6258 
G01 X0.0534 Y0.6200 
G01 X0.0513 Y0.6138 
G01 X0.0503 Y0.6074 
G01 X0.0503 Y0.6008 
G01 X0.0513 Y0.5944 
G01 X0.0534 Y0.5882 
G01 X0.0563 Y0.5823 
G01 X0.0602 Y0.5770 
G01 X0.0648 Y0.5724 
G01 X0.0701 Y0.5686 
G01 X0.0759 Y0.5656 
G01 X0.0821 Y0.5636 
G01 X0.0885 Y0.5626 
G01 X0.0951 Y0.5626 
G01 X0.1015 Y0.5636 
G01 X0.1077 Y0.5656 
G01 X0.1136 Y0.5686 
G01 X0.1188 Y0.5724 
G01 X0.1235 Y0.5770 
G01 X0.1273 Y0.5823 
G01 X0.1303 Y0.5882 
G01 X0.1323 Y0.5944 
G01 X0.1333 Y0.6008 
G00 Z0.1000 
G00 X0.1333 Y0.5008 
G01 Z-0.0070 F10.00 
G01 X0.1333 Y0.5074 F20.00 
G01 X0.1323 Y0.5138 
G01 X0.1303 Y0.5200 
G01 X0.1273 Y0.5258 
G01 X0.1235 Y0.5311 
G01 X0.1188 Y0.5357 
G01 X0.1136 Y0.5396 
G01 X0.1077 Y0.5425 
G01 X0.1015 Y0.5446 
G01 X0.0951 Y0.5456 
G01 X0.0885 Y0.5456 
G01 X0.0821 Y0.5446 
G01 X0.0759 Y0.5425 
G01 X0.0701 Y0.5396 
G01 X0.0648 Y0.5357 
G01 X0.0602 Y0.5311 
G01 X0.0563 Y0.5258 
G01 X0.0534 Y0.5200 
G01 X0.0513 Y0.5138 
G01 X0.0503 Y0.5074 
G01 X0.0503 Y0.5008 
G01 X0.0513 Y0.4944 
G01 X0.0534 Y0.4882 
G01 X0.0563 Y0.4823 
G01 X0.0602 Y0.4770 
G01 X0.0648 Y0.4724 
G01 X0.0701 Y0.4686 
G01 X0.0759 Y0.4656 
G01 X0.0821 Y0.4636 
G01 X0.0885 Y0.4626 
G01 X0.0951 Y0.4626 
G01 X0.1015 Y0.4636 
G01 X0.1077 Y0.4656 
G01 X0.1136 Y0.4686 
G01 X0.1188 Y0.4724 
G01 X0.1235 Y0.4770 
G01 X0.1273 Y0.4823 
G01 X0.1303 Y0.4882 
G01 X0.1323 Y0.4944 
G01 X0.1333 Y0.5008 
G00 Z0.1000 
G00 X0.1333 Y0.4008 
G01 Z-0.0070 F10.00 
G01 X0.1333 Y0.4074 F20.00 
G01 X0.1323 Y0.4138 
G01 X0.1303 Y0.4200 
G01 X0.1273 Y0.4258 
G01 X0.1235 Y0.4311 
G01 X0.1188 Y0.4357 
G01 X0.1136 Y0.4396 
G01 X0.1077 Y0.4425 
G01 X0.1015 Y0.4446 
G01 X0.0951 Y0.4456 
G01 X0.0885 Y0.4456 
G01 X0.0821 Y0.4446 
G01 X0.0759 Y0.4425 
G01 X0.0701 Y0.4396 
G01 X0.0648 Y0.4357 
G01 X0.0602 Y0.4311 
G01 X0.0563 Y0.4258 
G01 X0.0534 Y0.4200 
G01 X0.0513 Y0.4138 
G01 X0.0503 Y0.4074 
G01 X0.0503 Y0.4008 
G01 X0.0513 Y0.3944 
G01 X0.0534 Y0.3882 
G01 X0.0563 Y0.3823 
G01 X0.0602 Y0.3770 
G01 X0.0648 Y0.3724 
G01 X0.0701 Y0.3686 
G01 X0.0759 Y0.3656 
G01 X0.0821 Y0.3636 
G01 X0.0885 Y0.3626 
G01 X0.0951 Y0.3626 
G01 X0.1015 Y0.3636 
G01 X0.1077 Y0.3656 
G01 X0.1136 Y0.3686 
G01 X0.1188 Y0.3724 
G01 X0.1235 Y0.3770 
G01 X0.1273 Y0.3823 
G01 X0.1303 Y0.3882 
G01 X0.1323 Y0.3944 
G01 X0.1333 Y0.4008 
G00 Z0.1000 
G00 X0.1333 Y0.3008 
G01 Z-0.0070 F10.00 
G01 X0.1333 Y0.3074 F20.00 
G01 X0.1323 Y0.3138 
G01 X0.1303 Y0.3200 
G01 X0.1273 Y0.3258 
G01 X0.1235 Y0.3311 
G01 X0.1188 Y0.3357 
G01 X0.1136 Y0.3396 
G01 X0.1077 Y0.3425 
G01 X0.1015 Y0.3446 
G01 X0.0951 Y0.3456 
G01 X0.0885 Y0.3456 
G01 X0.0821 Y0.3446 
G01 X0.0759 Y0.3425 
G01 X0.0701 Y0.3396 
G01 X0.0648 Y0.3357 
G01 X0.0602 Y0.3311 
G01 X0.0563 Y0.3258 
G01 X0.0534 Y0.3200 
G01 X0.0513 Y0.3138 
G01 X0.0503 Y0.3074 
G01 X0.0503 Y0.3008 
G01 X0.0513 Y0.2944 
G01 X0.0534 Y0.2882 
G01 X0.0563 Y0.2823 
G01 X0.0602 Y0.2770 
G01 X0.0648 Y0.2724 
G01 X0.0701 Y0.2686 
G01 X0.0759 Y0.2656 
G01 X0.0821 Y0.2636 
G01 X0.0885 Y0.2626 
G01 X0.0951 Y0.2626 
G01 X0.1015 Y0.2636 
G01 X0.1077 Y0.2656 
G01 X0.1136 Y0.2686 
G01 X0.1188 Y0.2724 
G01 X0.1235 Y0.2770 
G01 X0.1273 Y0.2823 
G01 X0.1303 Y0.2882 
G01 X0.1323 Y0.2944 
G01 X0.1333 Y0.3008 
G00 Z0.1000 
G00 X0.1333 Y0.2008 
G01 Z-0.0070 F10.00 
G01 X0.1333 Y0.2074 F20.00 
G01 X0.1323 Y0.2138 
G01 X0.1303 Y0.2200 
G01 X0.1273 Y0.2258 
G01 X0.1235 Y0.2311 
G01 X0.1188 Y0.2357 
G01 X0.1136 Y0.2396 
G01 X0.1077 Y0.2425 
G01 X0.1015 Y0.2446 
G01 X0.0951 Y0.2456 
G01 X0.0885 Y0.2456 
G01 X0.0821 Y0.2446 
G01 X0.0759 Y0.2425 
G01 X0.0701 Y0.2396 
G01 X0.0648 Y0.2357 
G01 X0.0602 Y0.2311 
G01 X0.0563 Y0.2258 
G01 X0.0534 Y0.2200 
G01 X0.0513 Y0.2138 
G01 X0.0503 Y0.2074 
G01 X0.0503 Y0.2008 
G01 X0.0513 Y0.1944 
G01 X0.0534 Y0.1882 
G01 X0.0563 Y0.1823 
G01 X0.0602 Y0.1770 
G01 X0.0648 Y0.1724 
G01 X0.0701 Y0.1686 
G01 X0.0759 Y0.1656 
G01 X0.0821 Y0.1636 
G01 X0.0885 Y0.1626 
G01 X0.0951 Y0.1626 
G01 X0.1015 Y0.1636 
G01 X0.1077 Y0.1656 
G01 X0.1136 Y0.1686 
G01 X0.1188 Y0.1724 
G01 X0.1235 Y0.1770 
G01 X0.1273 Y0.1823 
G01 X0.1303 Y0.1882 
G01 X0.1323 Y0.1944 
G01 X0.1333 Y0.2008 
G00 Z0.1000 
G00 X2.0333 Y0.2008 
G01 Z-0.0070 F10.00 
G01 X2.0333 Y0.2074 F20.00 
G01 X2.0323 Y0.2138 
G01 X2.0303 Y0.2200 
G01 X2.0273 Y0.2258 
G01 X2.0235 Y0.2311 
G01 X2.0188 Y0.2357 
G01 X2.0136 Y0.2396 
G01 X2.0077 Y0.2425 
G01 X2.0015 Y0.2446 
G01 X1.9951 Y0.2456 
G01 X1.9885 Y0.2456 
G01 X1.9821 Y0.2446 
G01 X1.9759 Y0.2425 
G01 X1.9701 Y0.2396 
G01 X1.9648 Y0.2357 
G01 X1.9602 Y0.2311 
G01 X1.9563 Y0.2258 
G01 X1.9534 Y0.2200 
G01 X1.9513 Y0.2138 
G01 X1.9503 Y0.2074 
G01 X1.9503 Y0.2008 
G01 X1.9513 Y0.1944 
G01 X1.9534 Y0.1882 
G01 X1.9563 Y0.1823 
G01 X1.9602 Y0.1770 
G01 X1.9648 Y0.1724 
G01 X1.9701 Y0.1686 
G01 X1.9759 Y0.1656 
G01 X1.9821 Y0.1636 
G01 X1.9885 Y0.1626 
G01 X1.9951 Y0.1626 
G01 X2.0015 Y0.1636 
G01 X2.0077 Y0.1656 
G01 X2.0136 Y0.1686 
G01 X2.0188 Y0.1724 
G01 X2.0235 Y0.1770 
G01 X2.0273 Y0.1823 
G01 X2.0303 Y0.1882 
G01 X2.0323 Y0.1944 
G01 X2.0333 Y0.2008 
G00 Z0.1000 
G00 X2.0333 Y0.3008 
G01 Z-0.0070 F10.00 
G01 X2.0333 Y0.3074 F20.00 
G01 X2.0323 Y0.3138 
G01 X2.0303 Y0.3200 
G01 X2.0273 Y0.3258 
G01 X2.0235 Y0.3311 
G01 X2.0188 Y0.3357 
G01 X2.0136 Y0.3396 
G01 X2.0077 Y0.3425 
G01 X2.0015 Y0.3446 
G01 X1.9951 Y0.3456 
G01 X1.9885 Y0.3456 
G01 X1.9821 Y0.3446 
G01 X1.9759 Y0.3425 
G01 X1.9701 Y0.3396 
G01 X1.9648 Y0.3357 
G01 X1.9602 Y0.3311 
G01 X1.9563 Y0.3258 
G01 X1.9534 Y0.3200 
G01 X1.9513 Y0.3138 
G01 X1.9503 Y0.3074 
G01 X1.9503 Y0.3008 
G01 X1.9513 Y0.2944 
G01 X1.9534 Y0.2882 
G01 X1.9563 Y0.2823 
G01 X1.9602 Y0.2770 
G01 X1.9648 Y0.2724 
G01 X1.9701 Y0.2686 
G01 X1.9759 Y0.2656 
G01 X1.9821 Y0.2636 
G01 X1.9885 Y0.2626 
G01 X1.9951 Y0.2626 
G01 X2.0015 Y0.2636 
G01 X2.0077 Y0.2656 
G01 X2.0136 Y0.2686 
G01 X2.0188 Y0.2724 
G01 X2.0235 Y0.2770 
G01 X2.0273 Y0.2823 
G01 X2.0303 Y0.2882 
G01 X2.0323 Y0.2944 
G01 X2.0333 Y0.3008 
G00 Z0.1000 
G00 X2.0333 Y0.4008 
G01 Z-0.0070 F10.00 
G01 X2.0333 Y0.4074 F20.00 
G01 X2.0323 Y0.4138 
G01 X2.0303 Y0.4200 
G01 X2.0273 Y0.4258 
G01 X2.0235 Y0.4311 
G01 X2.0188 Y0.4357 
G01 X2.0136 Y0.4396 
G01 X2.0077 Y0.4425 
G01 X2.0015 Y0.4446 
G01 X1.9951 Y0.4456 
G01 X1.9885 Y0.4456 
G01 X1.9821 Y0.4446 
G01 X1.9759 Y0.4425 
G01 X1.9701 Y0.4396 
G01 X1.9648 Y0.4357 
G01 X1.9602 Y0.4311 
G01 X1.9563 Y0.4258 
G01 X1.9534 Y0.4200 
G01 X1.9513 Y0.4138 
G01 X1.9503 Y0.4074 
G01 X1.9503 Y0.4008 
G01 X1.9513 Y0.3944 
G01 X1.9534 Y0.3882 
G01 X1.9563 Y0.3823 
G01 X1.9602 Y0.3770 
G01 X1.9648 Y0.3724 
G01 X1.9701 Y0.3686 
G01 X1.9759 Y0.3656 
G01 X1.9821 Y0.3636 
G01 X1.9885 Y0.3626 
G01 X1.9951 Y0.3626 
G01 X2.0015 Y0.3636 
G01 X2.0077 Y0.3656 
G01 X2.0136 Y0.3686 
G01 X2.0188 Y0.3724 
G01 X2.0235 Y0.3770 
G01 X2.0273 Y0.3823 
G01 X2.0303 Y0.3882 
G01 X2.0323 Y0.3944 
G01 X2.0333 Y0.4008 
G00 Z0.1000 
G00 X2.0333 Y0.5008 
G01 Z-0.0070 F10.00 
G01 X2.0333 Y0.5074 F20.00 
G01 X2.0323 Y0.5138 
G01 X2.0303 Y0.5200 
G01 X2.0273 Y0.5258 
G01 X2.0235 Y0.5311 
G01 X2.0188 Y0.5357 
G01 X2.0136 Y0.5396 
G01 X2.0077 Y0.5425 
G01 X2.0015 Y0.5446 
G01 X1.9951 Y0.5456 
G01 X1.9885 Y0.5456 
G01 X1.9821 Y0.5446 
G01 X1.9759 Y0.5425 
G01 X1.9701 Y0.5396 
G01 X1.9648 Y0.5357 
G01 X1.9602 Y0.5311 
G01 X1.9563 Y0.5258 
G01 X1.9534 Y0.5200 
G01 X1.9513 Y0.5138 
G01 X1.9503 Y0.5074 
G01 X1.9503 Y0.5008 
G01 X1.9513 Y0.4944 
G01 X1.9534 Y0.4882 
G01 X1.9563 Y0.4823 
G01 X1.9602 Y0.4770 
G01 X1.9648 Y0.4724 
G01 X1.9701 Y0.4686 
G01 X1.9759 Y0.4656 
G01 X1.9821 Y0.4636 
G01 X1.9885 Y0.4626 
G01 X1.9951 Y0.4626 
G01 X2.0015 Y0.4636 
G01 X2.0077 Y0.4656 
G01 X2.0136 Y0.4686 
G01 X2.0188 Y0.4724 
G01 X2.0235 Y0.4770 
G01 X2.0273 Y0.4823 
G01 X2.0303 Y0.4882 
G01 X2.0323 Y0.4944 
G01 X2.0333 Y0.5008 
G00 Z0.1000 
G00 X2.0333 Y0.6008 
G01 Z-0.0070 F10.00 
G01 X2.0333 Y0.6074 F20.00 
G01 X2.0323 Y0.6138 
G01 X2.0303 Y0.6200 
G01 X2.0273 Y0.6258 
G01 X2.0235 Y0.6311 
G01 X2.0188 Y0.6357 
G01 X2.0136 Y0.6396 
G01 X2.0077 Y0.6425 
G01 X2.0015 Y0.6446 
G01 X1.9951 Y0.6456 
G01 X1.9885 Y0.6456 
G01 X1.9821 Y0.6446 
G01 X1.9759 Y0.6425 
G01 X1.9701 Y0.6396 
G01 X1.9648 Y0.6357 
G01 X1.9602 Y0.6311 
G01 X1.9563 Y0.6258 
G01 X1.9534 Y0.6200 
G01 X1.9513 Y0.6138 
G01 X1.9503 Y0.6074 
G01 X1.9503 Y0.6008 
G01 X1.9513 Y0.5944 
G01 X1.9534 Y0.5882 
G01 X1.9563 Y0.5823 
G01 X1.9602 Y0.5770 
G01 X1.9648 Y0.5724 
G01 X1.9701 Y0.5686 
G01 X1.9759 Y0.5656 
G01 X1.9821 Y0.5636 
G01 X1.9885 Y0.5626 
G01 X1.9951 Y0.5626 
G01 X2.0015 Y0.5636 
G01 X2.0077 Y0.5656 
G01 X2.0136 Y0.5686 
G01 X2.0188 Y0.5724 
G01 X2.0235 Y0.5770 
G01 X2.0273 Y0.5823 
G01 X2.0303 Y0.5882 
G01 X2.0323 Y0.5944 
G01 X2.0333 Y0.6008 
G00 Z0.1000 
G00 X2.0333 Y0.7008 
G01 Z-0.0070 F10.00 
G01 X2.0333 Y0.7074 F20.00 
G01 X2.0323 Y0.7138 
G01 X2.0303 Y0.7200 
G01 X2.0273 Y0.7258 
G01 X2.0235 Y0.7311 
G01 X2.0188 Y0.7357 
G01 X2.0136 Y0.7396 
G01 X2.0077 Y0.7425 
G01 X2.0015 Y0.7446 
G01 X1.9951 Y0.7456 
G01 X1.9885 Y0.7456 
G01 X1.9821 Y0.7446 
G01 X1.9759 Y0.7425 
G01 X1.9701 Y0.7396 
G01 X1.9648 Y0.7357 
G01 X1.9602 Y0.7311 
G01 X1.9563 Y0.7258 
G01 X1.9557 Y0.7246 
G01 X1.7635 Y0.7246 
G01 X1.7583 Y0.7232 
G01 X1.7536 Y0.7205 
G01 X1.7498 Y0.7167 
G01 X1.5454 Y0.5123 
G01 X1.5441 Y0.5127 
G01 X1.5377 Y0.5137 
G01 X1.5311 Y0.5137 
G01 X1.5247 Y0.5127 
G01 X1.5185 Y0.5107 
G01 X1.5126 Y0.5077 
G01 X1.5074 Y0.5039 
G01 X1.5027 Y0.4993 
G01 X1.4989 Y0.4940 
G01 X1.4959 Y0.4882 
G01 X1.4939 Y0.4820 
G01 X1.4929 Y0.4755 
G01 X1.4929 Y0.4690 
G01 X1.4939 Y0.4625 
G01 X1.4959 Y0.4563 
G01 X1.4989 Y0.4505 
G01 X1.5027 Y0.4452 
G01 X1.5074 Y0.4406 
G01 X1.5126 Y0.4368 
G01 X1.5185 Y0.4338 
G01 X1.5247 Y0.4318 
G01 X1.5311 Y0.4307 
G01 X1.5377 Y0.4307 
G01 X1.5441 Y0.4318 
G01 X1.5503 Y0.4338 
G01 X1.5561 Y0.4368 
G01 X1.5614 Y0.4406 
G01 X1.5661 Y0.4452 
G01 X1.5699 Y0.4505 
G01 X1.5729 Y0.4563 
G01 X1.5749 Y0.4625 
G01 X1.5759 Y0.4690 
G01 X1.5759 Y0.4755 
G01 X1.5749 Y0.4820 
G01 X1.5744 Y0.4833 
G01 X1.7747 Y0.6836 
G01 X1.9557 Y0.6836 
G01 X1.9563 Y0.6823 
G01 X1.9602 Y0.6770 
G01 X1.9648 Y0.6724 
G01 X1.9701 Y0.6686 
G01 X1.9759 Y0.6656 
G01 X1.9821 Y0.6636 
G01 X1.9885 Y0.6626 
G01 X1.9951 Y0.6626 
G01 X2.0015 Y0.6636 
G01 X2.0077 Y0.6656 
G01 X2.0136 Y0.6686 
G01 X2.0188 Y0.6724 
G01 X2.0235 Y0.6770 
G01 X2.0273 Y0.6823 
G01 X2.0303 Y0.6882 
G01 X2.0323 Y0.6944 
G01 X2.0333 Y0.7008 
G00 Z0.1000 
G00 X2.0333 Y0.8008 
G01 Z-0.0070 F10.00 
G01 X2.0333 Y0.8074 F20.00 
G01 X2.0323 Y0.8138 
G01 X2.0303 Y0.8200 
G01 X2.0273 Y0.8258 
G01 X2.0235 Y0.8311 
G01 X2.0188 Y0.8357 
G01 X2.0136 Y0.8396 
G01 X2.0077 Y0.8425 
G01 X2.0015 Y0.8446 
G01 X1.9951 Y0.8456 
G01 X1.9885 Y0.8456 
G01 X1.9821 Y0.8446 
G01 X1.9759 Y0.8425 
G01 X1.9701 Y0.8396 
G01 X1.9648 Y0.8357 
G01 X1.9602 Y0.8311 
G01 X1.9563 Y0.8258 
G01 X1.9557 Y0.8246 
G01 X1.6791 Y0.8246 
G01 X1.6739 Y0.8232 
G01 X1.6692 Y0.8205 
G01 X1.5621 Y0.7134 
G01 X1.5608 Y0.7138 
G01 X1.5543 Y0.7148 
G01 X1.5478 Y0.7148 
G01 X1.5413 Y0.7138 
G01 X1.5351 Y0.7118 
G01 X1.5293 Y0.7088 
G01 X1.5240 Y0.7050 
G01 X1.5194 Y0.7003 
G01 X1.5156 Y0.6951 
G01 X1.5126 Y0.6892 
G01 X1.5106 Y0.6830 
G01 X1.5095 Y0.6766 
G01 X1.5095 Y0.6700 
G01 X1.5106 Y0.6636 
G01 X1.5126 Y0.6574 
G01 X1.5156 Y0.6516 
G01 X1.5194 Y0.6463 
G01 X1.5240 Y0.6417 
G01 X1.5293 Y0.6378 
G01 X1.5351 Y0.6349 
G01 X1.5413 Y0.6328 
G01 X1.5478 Y0.6318 
G01 X1.5543 Y0.6318 
G01 X1.5608 Y0.6328 
G01 X1.5670 Y0.6349 
G01 X1.5728 Y0.6378 
G01 X1.5781 Y0.6417 
G01 X1.5827 Y0.6463 
G01 X1.5865 Y0.6516 
G01 X1.5895 Y0.6574 
G01 X1.5915 Y0.6636 
G01 X1.5925 Y0.6700 
G01 X1.5925 Y0.6766 
G01 X1.5915 Y0.6830 
G01 X1.5911 Y0.6844 
G01 X1.6903 Y0.7836 
G01 X1.9557 Y0.7836 
G01 X1.9563 Y0.7823 
G01 X1.9602 Y0.7770 
G01 X1.9648 Y0.7724 
G01 X1.9701 Y0.7686 
G01 X1.9759 Y0.7656 
G01 X1.9821 Y0.7636 
G01 X1.9885 Y0.7626 
G01 X1.9951 Y0.7626 
G01 X2.0015 Y0.7636 
G01 X2.0077 Y0.7656 
G01 X2.0136 Y0.7686 
G01 X2.0188 Y0.7724 
G01 X2.0235 Y0.7770 
G01 X2.0273 Y0.7823 
G01 X2.0303 Y0.7882 
G01 X2.0323 Y0.7944 
G01 X2.0333 Y0.8008 
G00 Z0.1000 
G00 X2.0333 Y0.9008 
G01 Z-0.0070 F10.00 
G01 X2.0333 Y0.9074 F20.00 
G01 X2.0323 Y0.9138 
G01 X2.0303 Y0.9200 
G01 X2.0273 Y0.9258 
G01 X2.0235 Y0.9311 
G01 X2.0188 Y0.9357 
G01 X2.0136 Y0.9396 
G01 X2.0077 Y0.9425 
G01 X2.0015 Y0.9446 
G01 X1.9951 Y0.9456 
G01 X1.9885 Y0.9456 
G01 X1.9821 Y0.9446 
G01 X1.9759 Y0.9425 
G01 X1.9701 Y0.9396 
G01 X1.9648 Y0.9357 
G01 X1.9602 Y0.9311 
G01 X1.9563 Y0.9258 
G01 X1.9557 Y0.9246 
G01 X1.5813 Y0.9246 
G01 X1.5777 Y0.9283 
G01 X1.5724 Y0.9321 
G01 X1.5666 Y0.9351 
G01 X1.5603 Y0.9371 
G01 X1.5539 Y0.9381 
G01 X1.5474 Y0.9381 
G01 X1.5409 Y0.9371 
G01 X1.5347 Y0.9351 
G01 X1.5289 Y0.9321 
G01 X1.5236 Y0.9283 
G01 X1.5190 Y0.9236 
G01 X1.5151 Y0.9184 
G01 X1.5122 Y0.9125 
G01 X1.5101 Y0.9063 
G01 X1.5091 Y0.8999 
G01 X1.5091 Y0.8933 
G01 X1.5101 Y0.8869 
G01 X1.5122 Y0.8807 
G01 X1.5151 Y0.8749 
G01 X1.5190 Y0.8696 
G01 X1.5236 Y0.8649 
G01 X1.5289 Y0.8611 
G01 X1.5347 Y0.8581 
G01 X1.5409 Y0.8561 
G01 X1.5474 Y0.8551 
G01 X1.5539 Y0.8551 
G01 X1.5603 Y0.8561 
G01 X1.5666 Y0.8581 
G01 X1.5724 Y0.8611 
G01 X1.5777 Y0.8649 
G01 X1.5823 Y0.8696 
G01 X1.5861 Y0.8749 
G01 X1.5891 Y0.8807 
G01 X1.5900 Y0.8836 
G01 X1.9557 Y0.8836 
G01 X1.9563 Y0.8823 
G01 X1.9602 Y0.8770 
G01 X1.9648 Y0.8724 
G01 X1.9701 Y0.8686 
G01 X1.9759 Y0.8656 
G01 X1.9821 Y0.8636 
G01 X1.9885 Y0.8626 
G01 X1.9951 Y0.8626 
G01 X2.0015 Y0.8636 
G01 X2.0077 Y0.8656 
G01 X2.0136 Y0.8686 
G01 X2.0188 Y0.8724 
G01 X2.0235 Y0.8770 
G01 X2.0273 Y0.8823 
G01 X2.0303 Y0.8882 
G01 X2.0323 Y0.8944 
G01 X2.0333 Y0.9008 
G00 Z0.1000 
G00 X2.0333 Y1.0508 
G01 Z-0.0070 F10.00 
G01 X2.0333 Y1.0574 F20.00 
G01 X2.0323 Y1.0638 
G01 X2.0303 Y1.0700 
G01 X2.0273 Y1.0758 
G01 X2.0235 Y1.0811 
G01 X2.0188 Y1.0857 
G01 X2.0136 Y1.0896 
G01 X2.0077 Y1.0925 
G01 X2.0015 Y1.0946 
G01 X1.9951 Y1.0956 
G01 X1.9885 Y1.0956 
G01 X1.9821 Y1.0946 
G01 X1.9759 Y1.0925 
G01 X1.9701 Y1.0896 
G01 X1.9648 Y1.0857 
G01 X1.9602 Y1.0811 
G01 X1.9563 Y1.0758 
G01 X1.9557 Y1.0746 
G01 X1.5803 Y1.0746 
G01 X1.5810 Y1.0791 
G01 X1.5810 Y1.0856 
G01 X1.5799 Y1.0920 
G01 X1.5779 Y1.0983 
G01 X1.5750 Y1.1041 
G01 X1.5711 Y1.1094 
G01 X1.5665 Y1.1140 
G01 X1.5612 Y1.1178 
G01 X1.5554 Y1.1208 
G01 X1.5492 Y1.1228 
G01 X1.5427 Y1.1238 
G01 X1.5362 Y1.1238 
G01 X1.5297 Y1.1228 
G01 X1.5235 Y1.1208 
G01 X1.5177 Y1.1178 
G01 X1.5124 Y1.1140 
G01 X1.5078 Y1.1094 
G01 X1.5040 Y1.1041 
G01 X1.5010 Y1.0983 
G01 X1.4990 Y1.0920 
G01 X1.4980 Y1.0856 
G01 X1.4980 Y1.0791 
G01 X1.4990 Y1.0726 
G01 X1.5010 Y1.0664 
G01 X1.5040 Y1.0606 
G01 X1.5078 Y1.0553 
G01 X1.5124 Y1.0507 
G01 X1.5177 Y1.0468 
G01 X1.5235 Y1.0439 
G01 X1.5297 Y1.0418 
G01 X1.5362 Y1.0408 
G01 X1.5427 Y1.0408 
G01 X1.5492 Y1.0418 
G01 X1.5505 Y1.0423 
G01 X1.5513 Y1.0415 
G01 X1.5551 Y1.0377 
G01 X1.5598 Y1.0350 
G01 X1.5650 Y1.0336 
G01 X1.9557 Y1.0336 
G01 X1.9563 Y1.0323 
G01 X1.9602 Y1.0270 
G01 X1.9648 Y1.0224 
G01 X1.9701 Y1.0186 
G01 X1.9759 Y1.0156 
G01 X1.9821 Y1.0136 
G01 X1.9885 Y1.0126 
G01 X1.9951 Y1.0126 
G01 X2.0015 Y1.0136 
G01 X2.0077 Y1.0156 
G01 X2.0136 Y1.0186 
G01 X2.0188 Y1.0224 
G01 X2.0235 Y1.0270 
G01 X2.0273 Y1.0323 
G01 X2.0303 Y1.0382 
G01 X2.0323 Y1.0444 
G01 X2.0333 Y1.0508 
G00 Z0.1000 
G00 X2.0333 Y1.2508 
G01 Z-0.0070 F10.00 
G01 X2.0333 Y1.2574 F20.00 
G01 X2.0323 Y1.2638 
G01 X2.0303 Y1.2700 
G01 X2.0273 Y1.2758 
G01 X2.0235 Y1.2811 
G01 X2.0188 Y1.2857 
G01 X2.0136 Y1.2896 
G01 X2.0077 Y1.2925 
G01 X2.0015 Y1.2946 
G01 X1.9951 Y1.2956 
G01 X1.9885 Y1.2956 
G01 X1.9821 Y1.2946 
G01 X1.9759 Y1.2925 
G01 X1.9701 Y1.2896 
G01 X1.9648 Y1.2857 
G01 X1.9602 Y1.2811 
G01 X1.9597 Y1.2805 
G01 X1.8885 Y1.2805 
G01 X1.6677 Y1.5013 
G01 X1.6630 Y1.5040 
G01 X1.6578 Y1.5054 
G01 X1.5825 Y1.5054 
G01 X1.5819 Y1.5066 
G01 X1.5780 Y1.5119 
G01 X1.5734 Y1.5166 
G01 X1.5681 Y1.5204 
G01 X1.5623 Y1.5234 
G01 X1.5561 Y1.5254 
G01 X1.5496 Y1.5264 
G01 X1.5431 Y1.5264 
G01 X1.5367 Y1.5254 
G01 X1.5304 Y1.5234 
G01 X1.5246 Y1.5204 
G01 X1.5193 Y1.5166 
G01 X1.5147 Y1.5119 
G01 X1.5109 Y1.5066 
G01 X1.5079 Y1.5008 
G01 X1.5059 Y1.4946 
G01 X1.5049 Y1.4882 
G01 X1.5049 Y1.4816 
G01 X1.5059 Y1.4752 
G01 X1.5079 Y1.4690 
G01 X1.5109 Y1.4631 
G01 X1.5147 Y1.4579 
G01 X1.5193 Y1.4532 
G01 X1.5246 Y1.4494 
G01 X1.5304 Y1.4464 
G01 X1.5367 Y1.4444 
G01 X1.5431 Y1.4434 
G01 X1.5496 Y1.4434 
G01 X1.5561 Y1.4444 
G01 X1.5623 Y1.4464 
G01 X1.5681 Y1.4494 
G01 X1.5734 Y1.4532 
G01 X1.5780 Y1.4579 
G01 X1.5819 Y1.4631 
G01 X1.5825 Y1.4644 
G01 X1.6466 Y1.4644 
G01 X1.8636 Y1.2474 
G01 X1.8674 Y1.2436 
G01 X1.8721 Y1.2409 
G01 X1.8773 Y1.2395 
G01 X1.9529 Y1.2395 
G01 X1.9534 Y1.2382 
G01 X1.9563 Y1.2323 
G01 X1.9602 Y1.2270 
G01 X1.9648 Y1.2224 
G01 X1.9701 Y1.2186 
G01 X1.9759 Y1.2156 
G01 X1.9821 Y1.2136 
G01 X1.9885 Y1.2126 
G01 X1.9951 Y1.2126 
G01 X2.0015 Y1.2136 
G01 X2.0077 Y1.2156 
G01 X2.0136 Y1.2186 
G01 X2.0188 Y1.2224 
G01 X2.0235 Y1.2270 
G01 X2.0273 Y1.2323 
G01 X2.0303 Y1.2382 
G01 X2.0323 Y1.2444 
G01 X2.0333 Y1.2508 
G00 Z0.1000 
G00 X2.0333 Y1.3508 
G01 Z-0.0070 F10.00 
G01 X2.0333 Y1.3574 F20.00 
G01 X2.0323 Y1.3638 
G01 X2.0303 Y1.3700 
G01 X2.0273 Y1.3758 
G01 X2.0235 Y1.3811 
G01 X2.0188 Y1.3857 
G01 X2.0136 Y1.3896 
G01 X2.0077 Y1.3925 
G01 X2.0015 Y1.3946 
G01 X1.9951 Y1.3956 
G01 X1.9885 Y1.3956 
G01 X1.9821 Y1.3946 
G01 X1.9759 Y1.3925 
G01 X1.9701 Y1.3896 
G01 X1.9648 Y1.3857 
G01 X1.9602 Y1.3811 
G01 X1.9563 Y1.3758 
G01 X1.9534 Y1.3700 
G01 X1.9513 Y1.3638 
G01 X1.9503 Y1.3574 
G01 X1.9503 Y1.3508 
G01 X1.9513 Y1.3444 
G01 X1.9534 Y1.3382 
G01 X1.9563 Y1.3323 
G01 X1.9602 Y1.3270 
G01 X1.9648 Y1.3224 
G01 X1.9701 Y1.3186 
G01 X1.9759 Y1.3156 
G01 X1.9821 Y1.3136 
G01 X1.9885 Y1.3126 
G01 X1.9951 Y1.3126 
G01 X2.0015 Y1.3136 
G01 X2.0077 Y1.3156 
G01 X2.0136 Y1.3186 
G01 X2.0188 Y1.3224 
G01 X2.0235 Y1.3270 
G01 X2.0273 Y1.3323 
G01 X2.0303 Y1.3382 
G01 X2.0323 Y1.3444 
G01 X2.0333 Y1.3508 
G00 Z0.1000 
G00 X2.0333 Y1.4508 
G01 Z-0.0070 F10.00 
G01 X2.0333 Y1.4574 F20.00 
G01 X2.0323 Y1.4638 
G01 X2.0303 Y1.4700 
G01 X2.0273 Y1.4758 
G01 X2.0235 Y1.4811 
G01 X2.0188 Y1.4857 
G01 X2.0136 Y1.4896 
G01 X2.0077 Y1.4925 
G01 X2.0015 Y1.4946 
G01 X1.9951 Y1.4956 
G01 X1.9885 Y1.4956 
G01 X1.9821 Y1.4946 
G01 X1.9759 Y1.4925 
G01 X1.9701 Y1.4896 
G01 X1.9648 Y1.4857 
G01 X1.9602 Y1.4811 
G01 X1.9563 Y1.4758 
G01 X1.9536 Y1.4706 
G01 X1.9128 Y1.4706 
G01 X1.8101 Y1.5732 
G01 X1.8064 Y1.5754 
G01 X1.8022 Y1.5765 
G01 X1.5318 Y1.5765 
G01 X1.4787 Y1.6297 
G01 X1.4805 Y1.6353 
G01 X1.4815 Y1.6417 
G01 X1.4815 Y1.6483 
G01 X1.4805 Y1.6547 
G01 X1.4785 Y1.6609 
G01 X1.4755 Y1.6668 
G01 X1.4717 Y1.6720 
G01 X1.4670 Y1.6767 
G01 X1.4618 Y1.6805 
G01 X1.4559 Y1.6835 
G01 X1.4497 Y1.6855 
G01 X1.4433 Y1.6865 
G01 X1.4367 Y1.6865 
G01 X1.4303 Y1.6855 
G01 X1.4241 Y1.6835 
G01 X1.4182 Y1.6805 
G01 X1.4130 Y1.6767 
G01 X1.4083 Y1.6720 
G01 X1.4045 Y1.6668 
G01 X1.4015 Y1.6609 
G01 X1.3995 Y1.6547 
G01 X1.3985 Y1.6483 
G01 X1.3985 Y1.6417 
G01 X1.3995 Y1.6353 
G01 X1.4015 Y1.6291 
G01 X1.4045 Y1.6232 
G01 X1.4083 Y1.6180 
G01 X1.4130 Y1.6133 
G01 X1.4182 Y1.6095 
G01 X1.4241 Y1.6065 
G01 X1.4303 Y1.6045 
G01 X1.4367 Y1.6035 
G01 X1.4433 Y1.6035 
G01 X1.4497 Y1.6045 
G01 X1.4553 Y1.6063 
G01 X1.5118 Y1.5499 
G01 X1.5149 Y1.5468 
G01 X1.5186 Y1.5446 
G01 X1.5228 Y1.5435 
G01 X1.7932 Y1.5435 
G01 X1.8927 Y1.4440 
G01 X1.8958 Y1.4409 
G01 X1.8995 Y1.4387 
G01 X1.9037 Y1.4376 
G01 X1.9536 Y1.4376 
G01 X1.9563 Y1.4323 
G01 X1.9602 Y1.4270 
G01 X1.9648 Y1.4224 
G01 X1.9701 Y1.4186 
G01 X1.9759 Y1.4156 
G01 X1.9821 Y1.4136 
G01 X1.9885 Y1.4126 
G01 X1.9951 Y1.4126 
G01 X2.0015 Y1.4136 
G01 X2.0077 Y1.4156 
G01 X2.0136 Y1.4186 
G01 X2.0188 Y1.4224 
G01 X2.0235 Y1.4270 
G01 X2.0273 Y1.4323 
G01 X2.0303 Y1.4382 
G01 X2.0323 Y1.4444 
G01 X2.0333 Y1.4508 
G00 Z0.1000 
G00 X2.0333 Y1.6508 
G01 Z-0.0070 F10.00 
G01 X2.0333 Y1.6574 F20.00 
G01 X2.0323 Y1.6638 
G01 X2.0303 Y1.6700 
G01 X2.0273 Y1.6758 
G01 X2.0235 Y1.6811 
G01 X2.0188 Y1.6857 
G01 X2.0136 Y1.6896 
G01 X2.0077 Y1.6925 
G01 X2.0015 Y1.6946 
G01 X1.9951 Y1.6956 
G01 X1.9885 Y1.6956 
G01 X1.9821 Y1.6946 
G01 X1.9759 Y1.6925 
G01 X1.9701 Y1.6896 
G01 X1.9648 Y1.6857 
G01 X1.9602 Y1.6811 
G01 X1.9563 Y1.6758 
G01 X1.9557 Y1.6746 
G01 X1.7944 Y1.6746 
G01 X1.7126 Y1.7564 
G01 X1.7079 Y1.7591 
G01 X1.7027 Y1.7605 
G01 X1.4303 Y1.7605 
G01 X1.4250 Y1.7591 
G01 X1.4204 Y1.7564 
G01 X1.4165 Y1.7526 
G01 X1.3569 Y1.6930 
G01 X1.3559 Y1.6935 
G01 X1.3497 Y1.6955 
G01 X1.3433 Y1.6965 
G01 X1.3367 Y1.6965 
G01 X1.3303 Y1.6955 
G01 X1.3241 Y1.6935 
G01 X1.3182 Y1.6905 
G01 X1.3130 Y1.6867 
G01 X1.3083 Y1.6820 
G01 X1.3045 Y1.6768 
G01 X1.3015 Y1.6709 
G01 X1.2995 Y1.6647 
G01 X1.2985 Y1.6583 
G01 X1.2985 Y1.6517 
G01 X1.2995 Y1.6453 
G01 X1.3015 Y1.6391 
G01 X1.3045 Y1.6332 
G01 X1.3083 Y1.6280 
G01 X1.3130 Y1.6233 
G01 X1.3182 Y1.6195 
G01 X1.3235 Y1.6168 
G01 X1.3235 Y1.5196 
G01 X1.3193 Y1.5166 
G01 X1.3147 Y1.5119 
G01 X1.3109 Y1.5066 
G01 X1.3079 Y1.5008 
G01 X1.3059 Y1.4946 
G01 X1.3049 Y1.4882 
G01 X1.3049 Y1.4816 
G01 X1.3059 Y1.4752 
G01 X1.3079 Y1.4690 
G01 X1.3109 Y1.4631 
G01 X1.3147 Y1.4579 
G01 X1.3193 Y1.4532 
G01 X1.3235 Y1.4502 
G01 X1.3235 Y1.3191 
G01 X1.3222 Y1.3184 
G01 X1.3169 Y1.3146 
G01 X1.3123 Y1.3100 
G01 X1.3085 Y1.3047 
G01 X1.3055 Y1.2989 
G01 X1.3035 Y1.2927 
G01 X1.3025 Y1.2862 
G01 X1.3025 Y1.2797 
G01 X1.3035 Y1.2732 
G01 X1.3055 Y1.2670 
G01 X1.3085 Y1.2612 
G01 X1.3123 Y1.2559 
G01 X1.3169 Y1.2513 
G01 X1.3190 Y1.2498 
G01 X1.3190 Y1.1185 
G01 X1.3177 Y1.1178 
G01 X1.3124 Y1.1140 
G01 X1.3078 Y1.1094 
G01 X1.3040 Y1.1041 
G01 X1.3010 Y1.0983 
G01 X1.2990 Y1.0920 
G01 X1.2980 Y1.0856 
G01 X1.2980 Y1.0791 
G01 X1.2990 Y1.0726 
G01 X1.3010 Y1.0664 
G01 X1.3040 Y1.0606 
G01 X1.3078 Y1.0553 
G01 X1.3124 Y1.0507 
G01 X1.3177 Y1.0468 
G01 X1.3235 Y1.0439 
G01 X1.3297 Y1.0418 
G01 X1.3301 Y1.0418 
G01 X1.3301 Y0.9327 
G01 X1.3289 Y0.9321 
G01 X1.3236 Y0.9283 
G01 X1.3190 Y0.9236 
G01 X1.3151 Y0.9184 
G01 X1.3122 Y0.9125 
G01 X1.3101 Y0.9063 
G01 X1.3091 Y0.8999 
G01 X1.3091 Y0.8933 
G01 X1.3101 Y0.8869 
G01 X1.3122 Y0.8807 
G01 X1.3151 Y0.8749 
G01 X1.3190 Y0.8696 
G01 X1.3236 Y0.8649 
G01 X1.3289 Y0.8611 
G01 X1.3305 Y0.8603 
G01 X1.3305 Y0.7094 
G01 X1.3293 Y0.7088 
G01 X1.3240 Y0.7050 
G01 X1.3194 Y0.7003 
G01 X1.3156 Y0.6951 
G01 X1.3126 Y0.6892 
G01 X1.3106 Y0.6830 
G01 X1.3095 Y0.6766 
G01 X1.3095 Y0.6700 
G01 X1.3106 Y0.6636 
G01 X1.3126 Y0.6574 
G01 X1.3156 Y0.6516 
G01 X1.3194 Y0.6463 
G01 X1.3195 Y0.6462 
G01 X1.3195 Y0.5110 
G01 X1.3185 Y0.5107 
G01 X1.3126 Y0.5077 
G01 X1.3074 Y0.5039 
G01 X1.3027 Y0.4993 
G01 X1.2989 Y0.4940 
G01 X1.2959 Y0.4882 
G01 X1.2939 Y0.4820 
G01 X1.2929 Y0.4755 
G01 X1.2929 Y0.4690 
G01 X1.2939 Y0.4625 
G01 X1.2944 Y0.4612 
G01 X1.1543 Y0.3212 
G01 X0.8199 Y0.3212 
G01 X0.8186 Y0.3251 
G01 X0.8141 Y0.3340 
G01 X0.8082 Y0.3421 
G01 X0.8011 Y0.3491 
G01 X0.7931 Y0.3550 
G01 X0.7841 Y0.3596 
G01 X0.7746 Y0.3626 
G01 X0.7647 Y0.3642 
G01 X0.6366 Y0.3642 
G01 X0.6268 Y0.3626 
G01 X0.6172 Y0.3596 
G01 X0.6083 Y0.3550 
G01 X0.6002 Y0.3491 
G01 X0.5932 Y0.3421 
G01 X0.5873 Y0.3340 
G01 X0.5827 Y0.3251 
G01 X0.5796 Y0.3155 
G01 X0.5781 Y0.3057 
G01 X0.5781 Y0.2957 
G01 X0.5796 Y0.2858 
G01 X0.5827 Y0.2763 
G01 X0.5873 Y0.2673 
G01 X0.5932 Y0.2593 
G01 X0.6002 Y0.2522 
G01 X0.6083 Y0.2463 
G01 X0.6172 Y0.2418 
G01 X0.6268 Y0.2387 
G01 X0.6366 Y0.2371 
G01 X0.7647 Y0.2371 
G01 X0.7746 Y0.2387 
G01 X0.7841 Y0.2418 
G01 X0.7931 Y0.2463 
G01 X0.8011 Y0.2522 
G01 X0.8082 Y0.2593 
G01 X0.8141 Y0.2673 
G01 X0.8186 Y0.2763 
G01 X0.8199 Y0.2802 
G01 X1.1655 Y0.2802 
G01 X1.1707 Y0.2816 
G01 X1.1754 Y0.2843 
G01 X1.3233 Y0.4322 
G01 X1.3247 Y0.4318 
G01 X1.3311 Y0.4307 
G01 X1.3377 Y0.4307 
G01 X1.3441 Y0.4318 
G01 X1.3503 Y0.4338 
G01 X1.3561 Y0.4368 
G01 X1.3614 Y0.4406 
G01 X1.3661 Y0.4452 
G01 X1.3699 Y0.4505 
G01 X1.3729 Y0.4563 
G01 X1.3749 Y0.4625 
G01 X1.3759 Y0.4690 
G01 X1.3759 Y0.4755 
G01 X1.3749 Y0.4820 
G01 X1.3729 Y0.4882 
G01 X1.3699 Y0.4940 
G01 X1.3661 Y0.4993 
G01 X1.3614 Y0.5039 
G01 X1.3605 Y0.5046 
G01 X1.3605 Y0.6328 
G01 X1.3608 Y0.6328 
G01 X1.3670 Y0.6349 
G01 X1.3728 Y0.6378 
G01 X1.3781 Y0.6417 
G01 X1.3827 Y0.6463 
G01 X1.3865 Y0.6516 
G01 X1.3895 Y0.6574 
G01 X1.3915 Y0.6636 
G01 X1.3925 Y0.6700 
G01 X1.3925 Y0.6766 
G01 X1.3915 Y0.6830 
G01 X1.3895 Y0.6892 
G01 X1.3865 Y0.6951 
G01 X1.3827 Y0.7003 
G01 X1.3781 Y0.7050 
G01 X1.3728 Y0.7088 
G01 X1.3715 Y0.7094 
G01 X1.3715 Y0.8607 
G01 X1.3724 Y0.8611 
G01 X1.3777 Y0.8649 
G01 X1.3823 Y0.8696 
G01 X1.3861 Y0.8749 
G01 X1.3891 Y0.8807 
G01 X1.3911 Y0.8869 
G01 X1.3921 Y0.8933 
G01 X1.3921 Y0.8999 
G01 X1.3911 Y0.9063 
G01 X1.3891 Y0.9125 
G01 X1.3861 Y0.9184 
G01 X1.3823 Y0.9236 
G01 X1.3777 Y0.9283 
G01 X1.3724 Y0.9321 
G01 X1.3711 Y0.9327 
G01 X1.3711 Y1.0553 
G01 X1.3750 Y1.0606 
G01 X1.3779 Y1.0664 
G01 X1.3799 Y1.0726 
G01 X1.3810 Y1.0791 
G01 X1.3810 Y1.0856 
G01 X1.3799 Y1.0920 
G01 X1.3779 Y1.0983 
G01 X1.3750 Y1.1041 
G01 X1.3711 Y1.1094 
G01 X1.3665 Y1.1140 
G01 X1.3612 Y1.1178 
G01 X1.3600 Y1.1185 
G01 X1.3600 Y1.2445 
G01 X1.3657 Y1.2475 
G01 X1.3710 Y1.2513 
G01 X1.3756 Y1.2559 
G01 X1.3795 Y1.2612 
G01 X1.3824 Y1.2670 
G01 X1.3845 Y1.2732 
G01 X1.3855 Y1.2797 
G01 X1.3855 Y1.2862 
G01 X1.3845 Y1.2927 
G01 X1.3824 Y1.2989 
G01 X1.3795 Y1.3047 
G01 X1.3756 Y1.3100 
G01 X1.3710 Y1.3146 
G01 X1.3657 Y1.3184 
G01 X1.3645 Y1.3191 
G01 X1.3645 Y1.4475 
G01 X1.3681 Y1.4494 
G01 X1.3734 Y1.4532 
G01 X1.3780 Y1.4579 
G01 X1.3819 Y1.4631 
G01 X1.3848 Y1.4690 
G01 X1.3868 Y1.4752 
G01 X1.3879 Y1.4816 
G01 X1.3879 Y1.4882 
G01 X1.3868 Y1.4946 
G01 X1.3848 Y1.5008 
G01 X1.3819 Y1.5066 
G01 X1.3780 Y1.5119 
G01 X1.3734 Y1.5166 
G01 X1.3681 Y1.5204 
G01 X1.3645 Y1.5222 
G01 X1.3645 Y1.6215 
G01 X1.3670 Y1.6233 
G01 X1.3717 Y1.6280 
G01 X1.3755 Y1.6332 
G01 X1.3785 Y1.6391 
G01 X1.3805 Y1.6453 
G01 X1.3815 Y1.6517 
G01 X1.3815 Y1.6583 
G01 X1.3813 Y1.6594 
G01 X1.4414 Y1.7195 
G01 X1.6915 Y1.7195 
G01 X1.7695 Y1.6415 
G01 X1.7733 Y1.6377 
G01 X1.7780 Y1.6350 
G01 X1.7832 Y1.6336 
G01 X1.9557 Y1.6336 
G01 X1.9563 Y1.6323 
G01 X1.9602 Y1.6270 
G01 X1.9648 Y1.6224 
G01 X1.9701 Y1.6186 
G01 X1.9759 Y1.6156 
G01 X1.9821 Y1.6136 
G01 X1.9885 Y1.6126 
G01 X1.9951 Y1.6126 
G01 X2.0015 Y1.6136 
G01 X2.0077 Y1.6156 
G01 X2.0136 Y1.6186 
G01 X2.0188 Y1.6224 
G01 X2.0235 Y1.6270 
G01 X2.0273 Y1.6323 
G01 X2.0303 Y1.6382 
G01 X2.0323 Y1.6444 
G01 X2.0333 Y1.6508 
G00 Z0.1000 
G00 X2.0333 Y1.7508 
G01 Z-0.0070 F10.00 
G01 X2.0333 Y1.7574 F20.00 
G01 X2.0323 Y1.7638 
G01 X2.0303 Y1.7700 
G01 X2.0273 Y1.7758 
G01 X2.0235 Y1.7811 
G01 X2.0188 Y1.7857 
G01 X2.0136 Y1.7896 
G01 X2.0077 Y1.7925 
G01 X2.0015 Y1.7946 
G01 X1.9951 Y1.7956 
G01 X1.9885 Y1.7956 
G01 X1.9821 Y1.7946 
G01 X1.9759 Y1.7925 
G01 X1.9701 Y1.7896 
G01 X1.9648 Y1.7857 
G01 X1.9602 Y1.7811 
G01 X1.9563 Y1.7758 
G01 X1.9534 Y1.7700 
G01 X1.9513 Y1.7638 
G01 X1.9503 Y1.7574 
G01 X1.9503 Y1.7508 
G01 X1.9513 Y1.7444 
G01 X1.9534 Y1.7382 
G01 X1.9563 Y1.7323 
G01 X1.9602 Y1.7270 
G01 X1.9648 Y1.7224 
G01 X1.9701 Y1.7186 
G01 X1.9759 Y1.7156 
G01 X1.9821 Y1.7136 
G01 X1.9885 Y1.7126 
G01 X1.9951 Y1.7126 
G01 X2.0015 Y1.7136 
G01 X2.0077 Y1.7156 
G01 X2.0136 Y1.7186 
G01 X2.0188 Y1.7224 
G01 X2.0235 Y1.7270 
G01 X2.0273 Y1.7323 
G01 X2.0303 Y1.7382 
G01 X2.0323 Y1.7444 
G01 X2.0333 Y1.7508 
G00 Z0.1000 
G00 X1.5795 Y1.3047 
G01 Z-0.0070 F10.00 
G01 X1.5756 Y1.3100 F20.00 
G01 X1.5710 Y1.3146 
G01 X1.5657 Y1.3184 
G01 X1.5599 Y1.3214 
G01 X1.5537 Y1.3234 
G01 X1.5472 Y1.3245 
G01 X1.5407 Y1.3245 
G01 X1.5343 Y1.3234 
G01 X1.5280 Y1.3214 
G01 X1.5222 Y1.3184 
G01 X1.5169 Y1.3146 
G01 X1.5123 Y1.3100 
G01 X1.5085 Y1.3047 
G01 X1.5055 Y1.2989 
G01 X1.5035 Y1.2927 
G01 X1.5025 Y1.2862 
G01 X1.5025 Y1.2797 
G01 X1.5035 Y1.2732 
G01 X1.5055 Y1.2670 
G01 X1.5085 Y1.2612 
G01 X1.5123 Y1.2559 
G01 X1.5169 Y1.2513 
G01 X1.5222 Y1.2475 
G01 X1.5280 Y1.2445 
G01 X1.5343 Y1.2425 
G01 X1.5407 Y1.2415 
G01 X1.5472 Y1.2415 
G01 X1.5537 Y1.2425 
G01 X1.5599 Y1.2445 
G01 X1.5657 Y1.2475 
G01 X1.5710 Y1.2513 
G01 X1.5756 Y1.2559 
G01 X1.5782 Y1.2595 
G01 X1.6115 Y1.2595 
G01 X1.7333 Y1.1377 
G01 X1.7380 Y1.1350 
G01 X1.7432 Y1.1336 
G01 X1.9557 Y1.1336 
G01 X1.9563 Y1.1323 
G01 X1.9602 Y1.1270 
G01 X1.9648 Y1.1224 
G01 X1.9701 Y1.1186 
G01 X1.9759 Y1.1156 
G01 X1.9821 Y1.1136 
G01 X1.9885 Y1.1126 
G01 X1.9951 Y1.1126 
G01 X2.0015 Y1.1136 
G01 X2.0077 Y1.1156 
G01 X2.0136 Y1.1186 
G01 X2.0188 Y1.1224 
G01 X2.0235 Y1.1270 
G01 X2.0273 Y1.1323 
G01 X2.0303 Y1.1382 
G01 X2.0323 Y1.1444 
G01 X2.0333 Y1.1508 
G01 X2.0333 Y1.1574 
G01 X2.0323 Y1.1638 
G01 X2.0303 Y1.1700 
G01 X2.0273 Y1.1758 
G01 X2.0235 Y1.1811 
G01 X2.0188 Y1.1857 
G01 X2.0136 Y1.1896 
G01 X2.0077 Y1.1925 
G01 X2.0015 Y1.1946 
G01 X1.9951 Y1.1956 
G01 X1.9885 Y1.1956 
G01 X1.9821 Y1.1946 
G01 X1.9759 Y1.1925 
G01 X1.9701 Y1.1896 
G01 X1.9648 Y1.1857 
G01 X1.9602 Y1.1811 
G01 X1.9563 Y1.1758 
G01 X1.9557 Y1.1746 
G01 X1.7544 Y1.1746 
G01 X1.6364 Y1.2926 
G01 X1.6326 Y1.2964 
G01 X1.6279 Y1.2991 
G01 X1.6227 Y1.3005 
G01 X1.5816 Y1.3005 
G01 X1.5795 Y1.3047 
G00 Z0.1000 
G00 X1.4810 Y1.0891 
G01 Z-0.0070 F10.00 
G01 X1.4810 Y1.0956 F20.00 
G01 X1.4799 Y1.1020 
G01 X1.4779 Y1.1083 
G01 X1.4750 Y1.1141 
G01 X1.4711 Y1.1194 
G01 X1.4665 Y1.1240 
G01 X1.4612 Y1.1278 
G01 X1.4600 Y1.1285 
G01 X1.4600 Y1.2545 
G01 X1.4657 Y1.2575 
G01 X1.4710 Y1.2613 
G01 X1.4756 Y1.2659 
G01 X1.4795 Y1.2712 
G01 X1.4824 Y1.2770 
G01 X1.4845 Y1.2832 
G01 X1.4855 Y1.2897 
G01 X1.4855 Y1.2962 
G01 X1.4845 Y1.3027 
G01 X1.4824 Y1.3089 
G01 X1.4795 Y1.3147 
G01 X1.4756 Y1.3200 
G01 X1.4710 Y1.3246 
G01 X1.4657 Y1.3284 
G01 X1.4645 Y1.3291 
G01 X1.4645 Y1.4575 
G01 X1.4681 Y1.4594 
G01 X1.4734 Y1.4632 
G01 X1.4780 Y1.4679 
G01 X1.4819 Y1.4731 
G01 X1.4848 Y1.4790 
G01 X1.4868 Y1.4852 
G01 X1.4879 Y1.4916 
G01 X1.4879 Y1.4982 
G01 X1.4868 Y1.5046 
G01 X1.4848 Y1.5108 
G01 X1.4819 Y1.5166 
G01 X1.4780 Y1.5219 
G01 X1.4734 Y1.5266 
G01 X1.4681 Y1.5304 
G01 X1.4623 Y1.5334 
G01 X1.4561 Y1.5354 
G01 X1.4496 Y1.5364 
G01 X1.4431 Y1.5364 
G01 X1.4367 Y1.5354 
G01 X1.4304 Y1.5334 
G01 X1.4246 Y1.5304 
G01 X1.4193 Y1.5266 
G01 X1.4147 Y1.5219 
G01 X1.4109 Y1.5166 
G01 X1.4079 Y1.5108 
G01 X1.4059 Y1.5046 
G01 X1.4049 Y1.4982 
G01 X1.4049 Y1.4916 
G01 X1.4059 Y1.4852 
G01 X1.4079 Y1.4790 
G01 X1.4109 Y1.4731 
G01 X1.4147 Y1.4679 
G01 X1.4193 Y1.4632 
G01 X1.4235 Y1.4602 
G01 X1.4235 Y1.3291 
G01 X1.4222 Y1.3284 
G01 X1.4169 Y1.3246 
G01 X1.4123 Y1.3200 
G01 X1.4085 Y1.3147 
G01 X1.4055 Y1.3089 
G01 X1.4035 Y1.3027 
G01 X1.4025 Y1.2962 
G01 X1.4025 Y1.2897 
G01 X1.4035 Y1.2832 
G01 X1.4055 Y1.2770 
G01 X1.4085 Y1.2712 
G01 X1.4123 Y1.2659 
G01 X1.4169 Y1.2613 
G01 X1.4190 Y1.2598 
G01 X1.4190 Y1.1285 
G01 X1.4177 Y1.1278 
G01 X1.4124 Y1.1240 
G01 X1.4078 Y1.1194 
G01 X1.4040 Y1.1141 
G01 X1.4010 Y1.1083 
G01 X1.3990 Y1.1020 
G01 X1.3980 Y1.0956 
G01 X1.3980 Y1.0891 
G01 X1.3990 Y1.0826 
G01 X1.4010 Y1.0764 
G01 X1.4040 Y1.0706 
G01 X1.4078 Y1.0653 
G01 X1.4124 Y1.0607 
G01 X1.4177 Y1.0568 
G01 X1.4235 Y1.0539 
G01 X1.4297 Y1.0518 
G01 X1.4362 Y1.0508 
G01 X1.4427 Y1.0508 
G01 X1.4492 Y1.0518 
G01 X1.4554 Y1.0539 
G01 X1.4612 Y1.0568 
G01 X1.4665 Y1.0607 
G01 X1.4711 Y1.0653 
G01 X1.4750 Y1.0706 
G01 X1.4779 Y1.0764 
G01 X1.4799 Y1.0826 
G01 X1.4810 Y1.0891 
G00 Z0.1000 
G00 X1.4921 Y0.8833 
G01 Z-0.0070 F10.00 
G01 X1.4921 Y0.8899 F20.00 
G01 X1.4911 Y0.8963 
G01 X1.4891 Y0.9025 
G01 X1.4861 Y0.9084 
G01 X1.4823 Y0.9136 
G01 X1.4777 Y0.9183 
G01 X1.4724 Y0.9221 
G01 X1.4666 Y0.9251 
G01 X1.4603 Y0.9271 
G01 X1.4539 Y0.9281 
G01 X1.4474 Y0.9281 
G01 X1.4409 Y0.9271 
G01 X1.4347 Y0.9251 
G01 X1.4289 Y0.9221 
G01 X1.4236 Y0.9183 
G01 X1.4190 Y0.9136 
G01 X1.4151 Y0.9084 
G01 X1.4122 Y0.9025 
G01 X1.4101 Y0.8963 
G01 X1.4091 Y0.8899 
G01 X1.4091 Y0.8833 
G01 X1.4101 Y0.8769 
G01 X1.4122 Y0.8707 
G01 X1.4151 Y0.8649 
G01 X1.4190 Y0.8596 
G01 X1.4236 Y0.8549 
G01 X1.4289 Y0.8511 
G01 X1.4305 Y0.8503 
G01 X1.4305 Y0.6994 
G01 X1.4293 Y0.6988 
G01 X1.4240 Y0.6950 
G01 X1.4194 Y0.6903 
G01 X1.4156 Y0.6851 
G01 X1.4126 Y0.6792 
G01 X1.4106 Y0.6730 
G01 X1.4095 Y0.6666 
G01 X1.4095 Y0.6600 
G01 X1.4106 Y0.6536 
G01 X1.4126 Y0.6474 
G01 X1.4139 Y0.6448 
G01 X1.4139 Y0.4984 
G01 X1.4126 Y0.4977 
G01 X1.4074 Y0.4939 
G01 X1.4027 Y0.4893 
G01 X1.3989 Y0.4840 
G01 X1.3959 Y0.4782 
G01 X1.3939 Y0.4720 
G01 X1.3929 Y0.4655 
G01 X1.3929 Y0.4590 
G01 X1.3939 Y0.4525 
G01 X1.3959 Y0.4463 
G01 X1.3989 Y0.4405 
G01 X1.4027 Y0.4352 
G01 X1.4074 Y0.4306 
G01 X1.4126 Y0.4268 
G01 X1.4185 Y0.4238 
G01 X1.4247 Y0.4218 
G01 X1.4311 Y0.4207 
G01 X1.4377 Y0.4207 
G01 X1.4441 Y0.4218 
G01 X1.4503 Y0.4238 
G01 X1.4561 Y0.4268 
G01 X1.4614 Y0.4306 
G01 X1.4661 Y0.4352 
G01 X1.4699 Y0.4405 
G01 X1.4729 Y0.4463 
G01 X1.4749 Y0.4525 
G01 X1.4759 Y0.4590 
G01 X1.4759 Y0.4655 
G01 X1.4749 Y0.4720 
G01 X1.4729 Y0.4782 
G01 X1.4699 Y0.4840 
G01 X1.4661 Y0.4893 
G01 X1.4614 Y0.4939 
G01 X1.4561 Y0.4977 
G01 X1.4549 Y0.4984 
G01 X1.4549 Y0.6219 
G01 X1.4608 Y0.6228 
G01 X1.4670 Y0.6249 
G01 X1.4728 Y0.6278 
G01 X1.4781 Y0.6317 
G01 X1.4827 Y0.6363 
G01 X1.4865 Y0.6416 
G01 X1.4895 Y0.6474 
G01 X1.4915 Y0.6536 
G01 X1.4925 Y0.6600 
G01 X1.4925 Y0.6666 
G01 X1.4915 Y0.6730 
G01 X1.4895 Y0.6792 
G01 X1.4865 Y0.6851 
G01 X1.4827 Y0.6903 
G01 X1.4781 Y0.6950 
G01 X1.4728 Y0.6988 
G01 X1.4715 Y0.6994 
G01 X1.4715 Y0.8507 
G01 X1.4724 Y0.8511 
G01 X1.4777 Y0.8549 
G01 X1.4823 Y0.8596 
G01 X1.4861 Y0.8649 
G01 X1.4891 Y0.8707 
G01 X1.4911 Y0.8769 
G01 X1.4921 Y0.8833 
G00 Z0.1000 
G00 X1.5815 Y1.6517 
G01 Z-0.0070 F10.00 
G01 X1.5815 Y1.6583 F20.00 
G01 X1.5805 Y1.6647 
G01 X1.5785 Y1.6709 
G01 X1.5755 Y1.6768 
G01 X1.5717 Y1.6820 
G01 X1.5670 Y1.6867 
G01 X1.5618 Y1.6905 
G01 X1.5559 Y1.6935 
G01 X1.5497 Y1.6955 
G01 X1.5433 Y1.6965 
G01 X1.5367 Y1.6965 
G01 X1.5303 Y1.6955 
G01 X1.5241 Y1.6935 
G01 X1.5182 Y1.6905 
G01 X1.5130 Y1.6867 
G01 X1.5083 Y1.6820 
G01 X1.5045 Y1.6768 
G01 X1.5015 Y1.6709 
G01 X1.4995 Y1.6647 
G01 X1.4985 Y1.6583 
G01 X1.4985 Y1.6517 
G01 X1.4995 Y1.6453 
G01 X1.5015 Y1.6391 
G01 X1.5045 Y1.6332 
G01 X1.5083 Y1.6280 
G01 X1.5130 Y1.6233 
G01 X1.5182 Y1.6195 
G01 X1.5241 Y1.6165 
G01 X1.5303 Y1.6145 
G01 X1.5367 Y1.6135 
G01 X1.5433 Y1.6135 
G01 X1.5497 Y1.6145 
G01 X1.5553 Y1.6163 
G01 X1.5818 Y1.5899 
G01 X1.5849 Y1.5868 
G01 X1.5886 Y1.5846 
G01 X1.5928 Y1.5835 
G01 X1.8932 Y1.5835 
G01 X1.9327 Y1.5440 
G01 X1.9358 Y1.5409 
G01 X1.9395 Y1.5387 
G01 X1.9437 Y1.5376 
G01 X1.9536 Y1.5376 
G01 X1.9563 Y1.5323 
G01 X1.9602 Y1.5270 
G01 X1.9648 Y1.5224 
G01 X1.9701 Y1.5186 
G01 X1.9759 Y1.5156 
G01 X1.9821 Y1.5136 
G01 X1.9885 Y1.5126 
G01 X1.9951 Y1.5126 
G01 X2.0015 Y1.5136 
G01 X2.0077 Y1.5156 
G01 X2.0136 Y1.5186 
G01 X2.0188 Y1.5224 
G01 X2.0235 Y1.5270 
G01 X2.0273 Y1.5323 
G01 X2.0303 Y1.5382 
G01 X2.0323 Y1.5444 
G01 X2.0333 Y1.5508 
G01 X2.0333 Y1.5574 
G01 X2.0323 Y1.5638 
G01 X2.0303 Y1.5700 
G01 X2.0273 Y1.5758 
G01 X2.0235 Y1.5811 
G01 X2.0188 Y1.5857 
G01 X2.0136 Y1.5896 
G01 X2.0077 Y1.5925 
G01 X2.0015 Y1.5946 
G01 X1.9951 Y1.5956 
G01 X1.9885 Y1.5956 
G01 X1.9821 Y1.5946 
G01 X1.9759 Y1.5925 
G01 X1.9701 Y1.5896 
G01 X1.9648 Y1.5857 
G01 X1.9602 Y1.5811 
G01 X1.9563 Y1.5758 
G01 X1.9536 Y1.5706 
G01 X1.9528 Y1.5706 
G01 X1.9101 Y1.6132 
G01 X1.9064 Y1.6154 
G01 X1.9022 Y1.6165 
G01 X1.6018 Y1.6165 
G01 X1.5787 Y1.6397 
G01 X1.5805 Y1.6453 
G01 X1.5815 Y1.6517 
G00 Z0.1000 
G00 X0.6325 Y0.4726 
G01 Z-0.0070 F10.00 
G01 X0.7606 Y0.4726 F20.00 
G01 X0.7705 Y0.4741 
G01 X0.7800 Y0.4772 
G01 X0.7889 Y0.4818 
G01 X0.7970 Y0.4876 
G01 X0.8041 Y0.4947 
G01 X0.8100 Y0.5028 
G01 X0.8145 Y0.5117 
G01 X0.8176 Y0.5212 
G01 X0.8192 Y0.5311 
G01 X0.8192 Y0.5411 
G01 X0.8176 Y0.5510 
G01 X0.8145 Y0.5605 
G01 X0.8100 Y0.5694 
G01 X0.8041 Y0.5775 
G01 X0.7970 Y0.5846 
G01 X0.7889 Y0.5905 
G01 X0.7800 Y0.5950 
G01 X0.7705 Y0.5981 
G01 X0.7606 Y0.5997 
G01 X0.6325 Y0.5997 
G01 X0.6226 Y0.5981 
G01 X0.6131 Y0.5950 
G01 X0.6042 Y0.5905 
G01 X0.5961 Y0.5846 
G01 X0.5890 Y0.5775 
G01 X0.5831 Y0.5694 
G01 X0.5786 Y0.5605 
G01 X0.5755 Y0.5510 
G01 X0.5739 Y0.5411 
G01 X0.5739 Y0.5311 
G01 X0.5755 Y0.5212 
G01 X0.5786 Y0.5117 
G01 X0.5831 Y0.5028 
G01 X0.5890 Y0.4947 
G01 X0.5961 Y0.4876 
G01 X0.6042 Y0.4818 
G01 X0.6131 Y0.4772 
G01 X0.6226 Y0.4741 
G01 X0.6325 Y0.4726 
G00 Z0.1000 
G00 Z0.5000 
M05
M02
